flaticon/holiday/wizard.svg

<svg xmlns="http://www.w3.org/2000/svg" width="32" height="32" viewBox="0 0 24 24">
    <path d="M11.140625 14.136719L10.753906 13.355469 10.371094 14.136719 9.511719 14.261719 10.132812 14.867188 9.988281 15.722656 10.753906 15.320312 11.523438 15.722656 11.378906 14.867188 12 14.261719zM14.894531 12L14.507812 12.777344 13.648438 12.902344 14.269531 13.511719 14.125 14.367188 14.894531 13.960938 15.664062 14.367188 15.515625 13.511719 16.136719 12.902344 15.277344 12.777344zM13.660156 10.007812L12.800781 9.882812 12.417969 9.101562 12.03125 9.882812 11.171875 10.007812 11.792969 10.613281 11.648438 11.472656 12.417969 11.066406 13.1875 11.472656 13.039062 10.613281zM12.820312 6.285156L13.445312 6.890625 13.296875 7.746094 14.066406 7.34375 14.835938 7.746094 14.6875 6.890625 15.308594 6.285156 14.449219 6.160156 14.066406 5.378906 13.679688 6.160156zM12.820312 6.285156"/>
    <path d="M 18.34375 17.78125 L 18.335938 17.761719 C 18.25 17.476562 18.164062 17.222656 18.078125 16.984375 L 18.089844 16.980469 L 17.96875 16.679688 C 17.875 16.445312 17.78125 16.222656 17.683594 16.015625 C 17.621094 15.871094 17.554688 15.742188 17.484375 15.613281 C 17.273438 15.21875 17.226562 14.890625 17.339844 14.585938 C 17.433594 14.328125 17.519531 14.066406 17.589844 13.804688 C 17.800781 13.015625 17.90625 12.203125 17.898438 11.386719 C 17.890625 10.414062 17.667969 9.433594 17.238281 8.464844 L 16.757812 7.378906 C 16.40625 6.578125 16.402344 5.703125 16.742188 4.925781 C 16.792969 4.816406 16.847656 4.707031 16.910156 4.601562 C 17.609375 3.421875 17.976562 2.457031 18.003906 1.734375 C 18.007812 1.609375 17.984375 1.480469 17.933594 1.367188 C 17.878906 1.25 17.800781 1.148438 17.703125 1.058594 C 17.648438 1.011719 17.585938 0.972656 17.519531 0.9375 C 17.328125 0.839844 17.097656 0.804688 16.878906 0.847656 C 16.527344 0.914062 16.015625 1.042969 15.429688 1.289062 C 14.144531 1.835938 12.515625 2.949219 11.511719 5.226562 L 9.628906 9.3125 C 9.503906 9.585938 9.34375 9.839844 9.164062 10.078125 C 8.824219 10.539062 8.414062 10.9375 8.027344 11.285156 C 7.507812 11.753906 7.429688 12.5 7.839844 13.054688 C 7.992188 13.261719 7.980469 13.523438 7.808594 13.722656 L 5.640625 16.984375 L 5.054688 17.875 C 1.703125 18.402344 0 19.210938 0 20.277344 C 0 22.402344 7.175781 23.171875 12 23.171875 C 16.824219 23.171875 24 22.402344 24 20.277344 C 24 18.871094 20.988281 18.148438 18.34375 17.78125 Z M 17.046875 19.222656 C 16.980469 19.242188 16.910156 19.261719 16.839844 19.277344 C 14.222656 19.957031 10.96875 20.042969 7.59375 19.527344 C 7.59375 19.527344 7.59375 19.523438 7.59375 19.523438 C 7.253906 19.472656 6.917969 19.417969 6.59375 19.355469 C 6.585938 19.355469 6.574219 19.351562 6.566406 19.351562 C 6.238281 19.289062 5.917969 19.222656 5.605469 19.15625 C 5.554688 19.144531 5.507812 19.125 5.472656 19.097656 C 5.4375 19.070312 5.410156 19.035156 5.394531 18.996094 C 5.371094 18.9375 5.375 18.882812 5.414062 18.828125 L 5.503906 18.691406 L 6.570312 17.082031 C 8.445312 17.277344 10.277344 17.378906 12.0625 17.378906 C 13.84375 17.378906 15.570312 17.277344 17.234375 17.082031 C 17.339844 17.359375 17.441406 17.65625 17.542969 17.996094 L 17.785156 18.792969 C 17.816406 18.902344 17.738281 19.015625 17.597656 19.0625 C 17.417969 19.121094 17.234375 19.171875 17.046875 19.222656 Z M 16.335938 1.835938 C 16.515625 1.777344 16.683594 1.734375 16.832031 1.699219 C 16.902344 1.683594 16.972656 1.671875 17.035156 1.660156 C 17.113281 1.644531 17.171875 1.6875 17.175781 1.703125 C 17.164062 1.992188 17.054688 2.605469 16.476562 3.6875 C 16.394531 3.84375 16.300781 4.007812 16.199219 4.179688 C 15.878906 4.71875 15.703125 5.3125 15.667969 5.914062 C 15.644531 6.367188 15.699219 6.824219 15.835938 7.269531 C 15.882812 7.421875 15.9375 7.566406 16.003906 7.714844 L 16.484375 8.800781 C 16.578125 9.015625 16.664062 9.230469 16.734375 9.449219 C 16.953125 10.097656 17.0625 10.75 17.070312 11.394531 C 17.078125 12.382812 16.910156 13.359375 16.5625 14.300781 C 16.367188 14.835938 16.429688 15.394531 16.757812 16.003906 C 16.804688 16.09375 16.851562 16.191406 16.894531 16.285156 C 16.753906 16.300781 16.613281 16.316406 16.472656 16.332031 C 16.304688 16.347656 16.132812 16.367188 15.964844 16.378906 C 15.695312 16.40625 15.425781 16.425781 15.15625 16.441406 C 15.007812 16.453125 14.859375 16.464844 14.710938 16.472656 C 14.390625 16.492188 14.066406 16.503906 13.742188 16.515625 C 13.636719 16.519531 13.535156 16.527344 13.429688 16.527344 C 12.988281 16.542969 12.550781 16.546875 12.105469 16.546875 C 12.09375 16.546875 12.085938 16.546875 12.078125 16.546875 C 11.648438 16.546875 11.21875 16.542969 10.785156 16.53125 C 10.644531 16.527344 10.503906 16.519531 10.367188 16.515625 C 10.058594 16.503906 9.753906 16.492188 9.445312 16.476562 C 9.273438 16.46875 9.101562 16.457031 8.933594 16.445312 C 8.648438 16.429688 8.367188 16.410156 8.082031 16.386719 C 7.902344 16.375 7.71875 16.359375 7.535156 16.34375 C 7.386719 16.328125 7.238281 16.3125 7.089844 16.300781 L 8.453125 14.242188 C 8.855469 13.757812 8.878906 13.070312 8.503906 12.5625 C 8.351562 12.351562 8.382812 12.082031 8.582031 11.898438 C 8.664062 11.828125 8.746094 11.75 8.828125 11.675781 C 9.40625 11.132812 10.003906 10.476562 10.378906 9.660156 L 12.265625 5.566406 C 13.246094 3.347656 14.878906 2.363281 16.050781 1.933594 C 16.148438 1.898438 16.246094 1.863281 16.335938 1.835938 Z M 12 22.34375 C 4.664062 22.34375 0.828125 20.996094 0.828125 20.277344 C 0.828125 20.054688 1.539062 19.347656 4.558594 18.792969 C 4.558594 18.800781 4.5625 18.804688 4.558594 18.808594 C 4.554688 18.867188 4.554688 18.925781 4.558594 18.984375 C 4.558594 19.011719 4.558594 19.035156 4.558594 19.058594 C 4.570312 19.140625 4.59375 19.222656 4.625 19.304688 C 4.757812 19.636719 5.058594 19.882812 5.425781 19.964844 C 5.4375 19.964844 5.449219 19.96875 5.460938 19.96875 C 5.886719 20.0625 6.335938 20.148438 6.789062 20.226562 C 6.953125 20.257812 7.121094 20.285156 7.285156 20.3125 C 7.34375 20.320312 7.394531 20.332031 7.453125 20.339844 C 10.820312 20.996094 14.101562 20.933594 16.675781 20.171875 C 16.710938 20.164062 16.742188 20.152344 16.78125 20.144531 C 16.941406 20.105469 17.101562 20.066406 17.257812 20.023438 C 17.460938 19.96875 17.660156 19.910156 17.847656 19.851562 C 17.917969 19.828125 17.984375 19.800781 18.046875 19.765625 C 18.066406 19.753906 18.085938 19.738281 18.105469 19.726562 C 18.144531 19.703125 18.183594 19.679688 18.214844 19.652344 C 18.238281 19.636719 18.257812 19.617188 18.277344 19.597656 C 18.308594 19.570312 18.335938 19.542969 18.359375 19.515625 C 18.378906 19.492188 18.394531 19.46875 18.414062 19.445312 C 18.433594 19.417969 18.457031 19.386719 18.476562 19.359375 C 18.492188 19.332031 18.503906 19.304688 18.515625 19.277344 C 18.53125 19.246094 18.546875 19.214844 18.558594 19.183594 C 18.566406 19.15625 18.574219 19.125 18.582031 19.097656 C 18.589844 19.0625 18.597656 19.03125 18.605469 18.996094 C 18.609375 18.964844 18.613281 18.9375 18.613281 18.90625 C 18.617188 18.871094 18.617188 18.835938 18.617188 18.800781 C 18.613281 18.769531 18.609375 18.742188 18.605469 18.710938 C 18.605469 18.691406 18.605469 18.675781 18.601562 18.65625 C 22.3125 19.210938 23.171875 20.023438 23.171875 20.277344 C 23.171875 20.996094 19.335938 22.34375 12 22.34375 Z M 12 22.34375"/>
</svg>

<svg xmlns="http://www.w3.org/2000/svg" width="32" height="32" viewBox="0 0 24 24">
    <path d="M11.14 14.137l-.386-.782-.383.782-.86.125.622.605-.145.856.766-.403.77.403-.145-.856.621-.605zm0 0M14.895 12l-.387.777-.86.125.622.61-.145.855.77-.406.77.406-.15-.855.622-.61-.86-.125zm0 0M13.66 10.008l-.86-.125-.382-.781-.387.78-.86.126.622.605-.145.86.77-.407.77.407-.149-.86zm0 0M12.82 6.285l.625.606-.148.855.77-.402.769.402-.149-.855.622-.606-.86-.125-.383-.781-.386.781zm0 0"/>
    <path d="M18.344 17.781l-.008-.02a15.13 15.13 0 0 0-.258-.777l.012-.004-.121-.3a12.104 12.104 0 0 0-.285-.664 4.823 4.823 0 0 0-.2-.403c-.21-.394-.257-.722-.144-1.027a9.026 9.026 0 0 0 .559-3.2c-.008-.972-.231-1.952-.66-2.921l-.481-1.086a3.031 3.031 0 0 1-.016-2.453c.051-.11.106-.219.168-.324.7-1.18 1.067-2.145 1.094-2.868a.844.844 0 0 0-.07-.367.983.983 0 0 0-.23-.308.996.996 0 0 0-.825-.211 7.266 7.266 0 0 0-1.45.441c-1.284.547-2.913 1.66-3.917 3.938L9.629 9.312a4.127 4.127 0 0 1-.465.766c-.34.461-.75.86-1.137 1.207a1.306 1.306 0 0 0-.187 1.77.52.52 0 0 1-.031.668L5.64 16.984l-.586.891C1.703 18.402 0 19.211 0 20.277c0 2.125 7.176 2.895 12 2.895s12-.77 12-2.895c0-1.406-3.012-2.129-5.656-2.496zm-1.297 1.442c-.067.02-.137.039-.207.054-2.617.68-5.871.766-9.246.25v-.004c-.34-.05-.676-.105-1-.168l-.028-.003a46.18 46.18 0 0 1-.96-.196.344.344 0 0 1-.133-.058.246.246 0 0 1-.078-.102.164.164 0 0 1 .02-.168l.089-.137 1.066-1.609a53.05 53.05 0 0 0 5.492.297c1.782 0 3.508-.102 5.172-.297.106.277.207.574.309.914l.242.797c.031.11-.047.223-.187.27-.18.058-.364.109-.551.16zm-.711-17.387a6.16 6.16 0 0 1 .496-.137c.07-.015.14-.027.203-.039.078-.015.137.028.14.043-.01.29-.12.902-.698 1.984-.082.157-.176.32-.278.493a3.824 3.824 0 0 0-.531 1.734 3.919 3.919 0 0 0 .336 1.8l.48 1.087c.094.215.18.43.25.648.22.649.328 1.301.336 1.946a8.166 8.166 0 0 1-.508 2.906c-.195.535-.132 1.094.196 1.703.047.09.094.187.137.281l-.422.047c-.168.016-.34.035-.508.047-.27.027-.54.047-.809.062-.148.012-.297.024-.445.032-.32.02-.645.03-.969.043-.105.004-.207.011-.312.011-.442.016-.88.02-1.325.02h-.027c-.43 0-.86-.004-1.293-.016-.14-.004-.281-.011-.418-.015a72.703 72.703 0 0 1-.922-.04c-.172-.007-.343-.019-.511-.03a31.16 31.16 0 0 1-.852-.06c-.18-.011-.363-.027-.547-.042a17.16 17.16 0 0 0-.445-.043l1.363-2.059a1.356 1.356 0 0 0 .05-1.68.489.489 0 0 1 .079-.664c.082-.07.164-.148.246-.222.578-.543 1.176-1.2 1.55-2.016l1.888-4.094c.98-2.218 2.613-3.203 3.785-3.632.097-.036.195-.07.285-.098zM12 22.344c-7.336 0-11.172-1.348-11.172-2.067 0-.222.711-.93 3.73-1.484 0 .008.005.012 0 .016a1.32 1.32 0 0 0 0 .175v.075c.012.082.036.164.067.246.133.332.434.578.8.66.013 0 .024.004.036.004.426.093.875.18 1.328.258.164.03.332.058.496.085.059.008.11.02.168.028 3.367.656 6.649.594 9.223-.168.035-.008.066-.02.105-.027a16.976 16.976 0 0 0 1.067-.293c.07-.024.136-.051.199-.086.02-.012.039-.028.058-.04.04-.023.079-.046.11-.074.023-.015.043-.035.062-.054a.812.812 0 0 0 .082-.082l.055-.07.063-.087c.015-.027.027-.054.039-.082.015-.03.03-.062.043-.093l.023-.086.023-.102c.004-.031.008-.058.008-.09.004-.035.004-.07.004-.105l-.012-.09c0-.02 0-.035-.003-.055 3.71.555 4.57 1.367 4.57 1.621 0 .72-3.836 2.067-11.172 2.067zm0 0"/>
</svg>
